X:1
T:Larry Redican's Bow
C:Larry Redican
S:Paul de Grae  irtrad-l 2000-04-26
R:reel
M:4/4
L:1/8
K:D
|| D2 FD A,DFD | E2 GE B,EGE | Dddc B2 AF | E2 ED EGFE |
|  D2 FD A,DFD | E2 GE B,EGE | FAdA BdAF |1 GECE D2 FE :| 2GECE D3 A ||
|| B3 A B2 Bc | dBBA BdcB | A2 fc eAcB | ABce fecA |
|  B2 (3cBA B2 Bc | dBBA B2 Bc | dBBA BAFB | ABce faec ||
|| B3 A B2 Bc | dBBA BdcB | A2 fc eAcB | ABce fecA |
|  B2 (3cBA B2 Bc | dBBA B2 Bc | (3dcB (3cBA BAFD | E2 EF GECE |]
